!!!OTL: Regina (2-23) S. 71
!!!id: P0896
**kern
*clefG2
*k[f#c#]
*A:
{4a
=1
4a
4a
8a
8b
8a
8g
=2
4.f#
8e
4d}
=3
{4a
=4
8b
8b
8b
8cc#
4dd
8b
8g#
=5
4a}
2r
=6
{4a
=7
4a
4a
8a
8b
8a
8g
=8
4f#
4g
4a}
=9
{4a
=10
8b
8dd
4cc#
8b
8a
4g#
=11
4a}
2r
==
*-
!!!minrhy: 8
!!!meters: 4/4 ]  ZZ[4
!!!cut: Regina (2-23) S. 71
!!!reg: Lothringen
!!!trd: PINCK, Louis: Verklingende Weisen, Bd 2, Metz 1928
!!!rhy1: X_  X_X_XXXX  X_.XX_
!!!rhy2: X_  XXXXX_XX  X_0__
!!!key: P0896  08  A 4/4 ]  ZZ[4
!!!mod: ACHTTONSKALA DUR ?]  AMBITUS[8
!!!kad: -4111
!!!akz: 11-6-4_241_11-61_221_
!!!fot: 'a__b__aw_c__
!!!for: 'a__b__c__d__
!!!fok: '\__^__V__^__
!! PHRAS[AUFTAKTIG]
!!!fkt: geistliche, religiöse Lieder
!! LOTH VKL
!! PR[27] 2K[3] 2G[7] 3K[7] 3G[3] 4A[10] 4Ü[0] 5A[0] 6K[0] 6G[0]
!! 7K[0] 7G[0] 8A[0] MEHR[0] SI[30] ABS[30] SR[10] SP[20]
!! ST[8] 2k[13] 2g[27] 3k[0] 3g[0] 4d[3] 4ü[0] 5d[0] 6k[0] 6g[0]
!! 7k[0] 7g[0] 8d[0] mehr[0] si[43] dm[-13] sr[40] sp[3]
!! 1F[66] 2F[25] 3F[6] 4F[0] LF[0] 2P[3] 3P[0] 4P[0] TRI[0] DF[4] AB[32]
!! TF[0] U3K[0] U3[0] U4[0] U4Ü[0] U5[16] U6K[0] U6[0] U7K[0] U7[3]
!! N1[26] N2K[0] N2[19] N3K[0] N3[23] N4[10] N4Ü[0] N5[3] N6K[0] N6[0]
!!!n7k: 0] N7[0] O1[0] O2K[0] O2[0] O3K[0] O3[0] HÖ[0
